X: 8951
T: Currants For Cakes And Raisins For Everything
R: jig
M: 6/8
K: Dmajor
dfd cde|dfd AFA|DFA dAF|GEE EFG|
FDF AFd|Aaf gfe|dAF BAG|FDD D3:|
|:EFG A2d|FdF AFD|EFG A2G|E=CE GFE|
FDF AFd|Aaf gfe|dAF BAG|FDD D3:|

